X:1
T:Laird o' Drumblair
M:C
L:1/8
K:A
E|({G}A2 c>A E>A c>A|{A}(a2g>)(a f>)(a e>)c| (3def (3efg (3aed (3cBA| (3Bcd (3cBA (3GFE (3dcB|!
{G}A2 c>A E>A c>A|{A}(a2g>)(a f>)(a e>)c| (3def (3efg (3aed (3cBA|(GFE (3dcB A2-A||!
g|{g}a2 e>a c>aA>a|(c/B/A) e>g a>A c e7f <A|{^a}b2 f>b d>b B>b| (d/c/B) f>B b>B da c>aA>a|!
(c/B/A) e>g a>e c>A| (3def (3efg (3aed (3cBA|1(3GFE (3dcB {G}A2-A:|2(3GFE (3DCB, A,2-A,|]!
